website/static/img/dark_logo.svg

<svg clip-rule="evenodd" fill-rule="evenodd" stroke-linecap="round" stroke-linejoin="round" stroke-miterlimit="2" viewBox="0 0 2686 460" xmlns="http://www.w3.org/2000/svg"><g transform="matrix(1.02312 0 0 1 -385.25 -676.6137)"><path d="m376.544 676.614h2624.7v459.01h-2624.7z" fill="none"/><text font-family="'Futura-Bold', 'Futura', sans-serif" font-size="14" font-weight="700" transform="matrix(26.0048 0 0 26.606 71.7173 737.703)" x="27.248" y="12.384">Chec<tspan x="62.15 71.922" y="12.384 12.384">km</tspan>at<tspan x="100.986" y="12.384">e</tspan></text><path d="m5727.41 203.131-11.28 46.659-5.78 62.738 13.24 38.425 17.66 26.471 55.13 1.836 65.32 3.322 31.96-3.795 33.69-9.465 9.73-8.405 7.35-19.821 3.11-16.207-.45-16.98.78-26.319-.81-28.618 2.72-33.23-27.96-21.234-24.41-8.233-42.79-2.056-58.47.922z" fill="#e5e5e5" transform="matrix(.97739974 0 0 .9999966 -5115.441636 676.614207)"/><g fill-rule="nonzero"><g transform="matrix(1.20159 0 0 1.22937 313.354 775.511)"><path d="m181.956 102.43c-17.275 0-31.28 14.005-31.28 31.28.044 17.257 14.023 31.236 31.28 31.28 17.275 0 31.28-14.005 31.28-31.28s-14.005-31.28-31.28-31.28zm0 46.48c-8.439 0-15.28-6.841-15.28-15.28s6.841-15.28 15.28-15.28 15.28 6.841 15.28 15.28-6.841 15.28-15.28 15.28z"/><path d="m271.076 102.43c-17.275 0-31.28 14.005-31.28 31.28.044 17.257 14.023 31.236 31.28 31.28 17.276 0 31.28-14.005 31.28-31.28s-14.005-31.28-31.28-31.28zm0 46.48c-8.439 0-15.28-6.841-15.28-15.28s6.841-15.28 15.28-15.28 15.28 6.841 15.28 15.28-6.841 15.28-15.28 15.28z"/><path d="m331.236 188.99c.28-5.393 1.344-67.025-2-86.16-3.398-19.443-20.08-35.2-49.84-35.2h-44.88v-16.72c-2.254-2.742-12.835-2.527-16 0v16h-44.96c-21.04 0-43.28 9.68-50 35.2-4.436 16.847-1.84 86.88-1.84 86.88 2.48 34.24 27.92 46.64 51.84 46.64h105.84c35.68 0 50.621-23.16 51.84-46.64zm-15.76-5.28c0 13.52-4.72 36.08-36.08 36.08h-105.84c-13.52 0-36.08-4.72-36.08-36.08v-64c0-31.44 22.64-36.08 36.08-36.08h105.84c31.44 0 36.08 22.64 36.08 36.08z"/><path d="m271.076 185.79h-89.12c-4.418 0-8 3.582-8 8s3.582 8 8 8h89.12c4.418 0 8-3.582 8-8s-3.582-8-8-8z"/></g><path d="m138.516 390.19c-11.797 0-21.36 9.563-21.36 21.36s9.563 21.36 21.36 21.36 21.36-9.563 21.36-21.36-9.563-21.36-21.36-21.36zm0 26.72c-2.96 0-5.36-2.4-5.36-5.36s2.4-5.36 5.36-5.36 5.36 2.4 5.36 5.36-2.4 5.36-5.36 5.36z" transform="matrix(1.20159 0 0 1.22937 347.035529 571.391323)"/><path d="m138.516 390.19c-11.797 0-21.36 9.563-21.36 21.36s9.563 21.36 21.36 21.36 21.36-9.563 21.36-21.36-9.563-21.36-21.36-21.36zm0 26.72c-2.96 0-5.36-2.4-5.36-5.36s2.4-5.36 5.36-5.36 5.36 2.4 5.36 5.36-2.4 5.36-5.36 5.36z" transform="matrix(1.20159 0 0 1.22937 479.369279 571.391323)"/><path d="m459 255c0 112.2-91.8 204-204 204s-204-91.8-204-204 91.8-204 204-204c20.4 0 38.25 2.55 56.1 7.65l40.801-40.8c-30.601-10.2-63.751-17.85-96.901-17.85-140.25 0-255 114.75-255 255s114.75 255 255 255 255-114.75 255-255z" stroke="#000" stroke-width="24.14" transform="matrix(.253087 0 0 .258939 521.422 707.641)"/></g><g transform="matrix(.321323 0 0 .339441 519.494 677.843)"><path d="m150.45 206.55-35.7 35.7 114.75 114.75 255-255-35.7-35.7-219.3 219.3z" fill="none" stroke="#00c9a6" stroke-miterlimit="1" stroke-width="24.94"/><path d="m150.45 206.55-35.7 35.7 114.75 114.75 255-255-35.7-35.7-219.3 219.3z" fill="#00c9a6" fill-rule="nonzero"/></g></g></svg>

<svg width="100%" height="100%" viewBox="0 0 2686 460" version="1.1" xmlns="http://www.w3.org/2000/svg" xmlns:xlink="http://www.w3.org/1999/xlink" xml:space="preserve" xmlns:serif="http://www.serif.com/" fill-rule="evenodd" clip-rule="evenodd" stroke-linecap="round" stroke-linejoin="round" stroke-miterlimit="2"><g transform="matrix(1,0,0,1,-5618.97,-598.053)"><g id="B-W-logo" serif:id="B/W logo" transform="matrix(1.02312,0,0,1,5233.72,-78.5607)"><rect x="376.544" y="676.614" width="2624.7" height="459.01" fill="none"/><g><text x="27.248" y="12.384" font-family="'Futura-Bold', 'Futura', sans-serif" font-weight="700" font-size="14px" transform="matrix(26.0048,0,0,26.606,71.7173,737.703)">Chec<tspan x="62.15px 71.922px" y="12.384px 12.384px">km</tspan>at<tspan x="100.986" y="12.384">e</tspan></text></g><g><g><path d="M5727.41,203.131L5716.13,249.79L5710.35,312.528L5723.59,350.953L5741.25,377.424L5796.38,379.26L5861.7,382.582L5893.66,378.787L5927.35,369.322L5937.08,360.917L5944.43,341.096L5947.54,324.889L5947.09,307.909L5947.87,281.59L5947.06,252.972L5949.78,219.742L5921.82,198.508L5897.41,190.275L5854.62,188.219L5796.15,189.141L5727.41,203.131Z" fill="rgb(229,229,229)" transform="matrix(1.20159,0,0,1.22937,313.354,775.511) matrix(0.813422,0,0,0.813422,-4518.01,-80.4451)"/></g><path d="M181.956,102.43C164.681,102.43 150.676,116.435 150.676,133.71C150.72,150.967 164.699,164.946 181.956,164.99C199.231,164.99 213.236,150.985 213.236,133.71C213.236,116.435 199.231,102.43 181.956,102.43ZM181.956,148.91C173.517,148.91 166.676,142.069 166.676,133.63C166.676,125.191 173.517,118.35 181.956,118.35C190.395,118.35 197.236,125.191 197.236,133.63C197.236,142.069 190.395,148.91 181.956,148.91Z" fill-rule="nonzero" transform="matrix(1.20159,0,0,1.22937,313.354,775.511)"/><path d="M271.076,102.43C253.801,102.43 239.796,116.435 239.796,133.71C239.84,150.967 253.819,164.946 271.076,164.99C288.352,164.99 302.356,150.985 302.356,133.71C302.356,116.435 288.351,102.43 271.076,102.43ZM271.076,148.91C262.637,148.91 255.796,142.069 255.796,133.63C255.796,125.191 262.637,118.35 271.076,118.35C279.515,118.35 286.356,125.191 286.356,133.63C286.356,142.069 279.515,148.91 271.076,148.91Z" fill-rule="nonzero" transform="matrix(1.20159,0,0,1.22937,313.354,775.511)"/><path d="M331.236,188.99C331.516,183.597 332.58,121.965 329.236,102.83C325.838,83.387 309.156,67.63 279.396,67.63L234.516,67.63L234.516,50.91C232.262,48.168 221.681,48.383 218.516,50.91L218.516,66.91L173.556,66.91C152.516,66.91 130.276,76.59 123.556,102.11C119.12,118.957 121.716,188.99 121.716,188.99C124.196,223.23 149.636,235.63 173.556,235.63L279.396,235.63C315.076,235.63 330.017,212.47 331.236,188.99ZM315.476,183.71C315.476,197.23 310.756,219.79 279.396,219.79L173.556,219.79C160.036,219.79 137.476,215.07 137.476,183.71L137.476,119.71C137.476,88.27 160.116,83.63 173.556,83.63L279.396,83.63C310.836,83.63 315.476,106.27 315.476,119.71L315.476,183.71Z" fill-rule="nonzero" transform="matrix(1.20159,0,0,1.22937,313.354,775.511)"/><path d="M271.076,185.79L181.956,185.79C177.538,185.79 173.956,189.372 173.956,193.79C173.956,198.208 177.538,201.79 181.956,201.79L271.076,201.79C275.494,201.79 279.076,198.208 279.076,193.79C279.076,189.372 275.494,185.79 271.076,185.79Z" fill-rule="nonzero" transform="matrix(1.20159,0,0,1.22937,313.354,775.511)"/><g><path d="M138.516,390.19C126.719,390.19 117.156,399.753 117.156,411.55C117.156,423.347 126.719,432.91 138.516,432.91C150.313,432.91 159.876,423.347 159.876,411.55C159.876,399.753 150.313,390.19 138.516,390.19ZM138.516,416.91C135.556,416.91 133.156,414.51 133.156,411.55C133.156,408.59 135.556,406.19 138.516,406.19C141.476,406.19 143.876,408.59 143.876,411.55C143.876,414.51 141.476,416.91 138.516,416.91Z" fill-rule="nonzero" transform="matrix(1.20159,0,0,1.22937,313.354,775.511) matrix(1,0,0,1,28.0308,-166.036)"/></g><g><path d="M138.516,390.19C126.719,390.19 117.156,399.753 117.156,411.55C117.156,423.347 126.719,432.91 138.516,432.91C150.313,432.91 159.876,423.347 159.876,411.55C159.876,399.753 150.313,390.19 138.516,390.19ZM138.516,416.91C135.556,416.91 133.156,414.51 133.156,411.55C133.156,408.59 135.556,406.19 138.516,406.19C141.476,406.19 143.876,408.59 143.876,411.55C143.876,414.51 141.476,416.91 138.516,416.91Z" fill-rule="nonzero" transform="matrix(1.20159,0,0,1.22937,313.354,775.511) matrix(1,0,0,1,138.163,-166.036)"/></g></g><g id="check-circle-outline"><path d="M459,255C459,367.2 367.2,459 255,459C142.8,459 51,367.2 51,255C51,142.8 142.8,51 255,51C275.4,51 293.25,53.55 311.1,58.65L351.901,17.85C321.3,7.65 288.15,0 255,0C114.75,0 0,114.75 0,255C0,395.25 114.75,510 255,510C395.25,510 510,395.25 510,255L459,255Z" fill-rule="nonzero" stroke="black" stroke-width="24.14px" transform="matrix(0.253087,0,0,0.258939,521.422,707.641)"/></g><g id="check-circle-outline1" serif:id="check-circle-outline"><path d="M150.45,206.55L114.75,242.25L229.5,357L484.5,102L448.8,66.3L229.5,285.6L150.45,206.55Z" fill="none" fill-rule="nonzero" stroke="rgb(0,201,166)" stroke-width="24.94px" stroke-miterlimit="1" transform="matrix(0.321323,0,0,0.339441,519.494,677.843)"/><path d="M150.45,206.55L114.75,242.25L229.5,357L484.5,102L448.8,66.3L229.5,285.6L150.45,206.55Z" fill="rgb(0,201,166)" fill-rule="nonzero" transform="matrix(0.321323,0,0,0.339441,519.494,677.843)"/></g></g></g></svg>
